Adwaita++/actions/22/node-type-smooth.svg

<svg height="22" viewBox="0 0 22 22" width="22" xmlns="http://www.w3.org/2000/svg">
  <path d="m14.533203 2.0058594a.50005.50005 0 0 0 -.46875.5742187c.22151 1.6172-.043581 3.7823219-1.050781 5.4824219-.65127 1.0993-1.592406 2.012591-2.941406 2.525391v-1.5937504h-5.0000004v1.6640624c-1.4311-.485-2.4013281-1.4028905-3.0488281-2.5253905-.9594-1.663-1.17348125-3.7937156-.9257813-5.4160156a.50005.50005 0 1 0 -.9882812-.1523438c-.27943 1.8301-.05907187 4.1458063 1.0488281 6.0664063.79494 1.3779996 2.0881625 2.5196466 3.9140625 3.0605466v2.302735h5.0000004v-2.373047c1.7413-.57352 3.003234-1.6993284 3.802734-3.0488284 1.154-1.948 1.431088-4.2937062 1.179688-6.1289062a.50005.50005 0 0 0 -.521485-.4375z" fill="#444" transform="translate(3 3)"/>
</svg>

<svg xmlns="http://www.w3.org/2000/svg" width="22" height="22" viewBox="0 0 22 22">
 <defs>
  <style id="current-color-scheme" type="text/css">
   .ColorScheme-Text { color:#444444; } .ColorScheme-Highlight { color:#4285f4; }
  </style>
 </defs>
 <path style="fill:currentColor" class="ColorScheme-Text" d="M 14.533203 2.0058594 A 0.50005 0.50005 0 0 0 14.064453 2.5800781 C 14.285963 4.1972781 14.020872 6.3624 13.013672 8.0625 C 12.362402 9.1618 11.421266 10.075091 10.072266 10.587891 L 10.072266 8.9941406 L 5.0722656 8.9941406 L 5.0722656 10.658203 C 3.6411656 10.173203 2.6709375 9.2553125 2.0234375 8.1328125 C 1.0640375 6.4698125 0.84995625 4.3390969 1.0976562 2.7167969 A 0.50005 0.50005 0 1 0 0.109375 2.5644531 C -0.170055 4.3945531 0.050303125 6.7102594 1.1582031 8.6308594 C 1.9531431 10.008859 3.2463656 11.150506 5.0722656 11.691406 L 5.0722656 13.994141 L 10.072266 13.994141 L 10.072266 11.621094 C 11.813566 11.047574 13.0755 9.9217656 13.875 8.5722656 C 15.029 6.6242656 15.306088 4.2785594 15.054688 2.4433594 A 0.50005 0.50005 0 0 0 14.533203 2.0058594 z" transform="translate(3 3)"/>
</svg>
